src/shared/assets/dialog/dialogSettings-option.svg

<svg width="36" height="36" viewBox="0 0 36 36" fill="none" xmlns="http://www.w3.org/2000/svg">
<path d="M16 18C17.3059 18 18.4141 18.8353 18.8262 20H25C25.5523 20 26 20.4477 26 21C26 21.5523 25.5523 22 25 22H18.8262C18.4141 23.1647 17.3059 24 16 24C14.6941 24 13.5859 23.1647 13.1738 22H11C10.4477 22 10 21.5523 10 21C10 20.4477 10.4477 20 11 20H13.1738C13.5859 18.8353 14.6941 18 16 18ZM16 20C15.4477 20 15 20.4477 15 21C15 21.5523 15.4477 22 16 22C16.5523 22 17 21.5523 17 21C17 20.4477 16.5523 20 16 20ZM20 12C21.3059 12 22.4141 12.8353 22.8262 14H25C25.5523 14 26 14.4477 26 15C26 15.5523 25.5523 16 25 16H22.8262C22.4141 17.1647 21.3059 18 20 18C18.6941 18 17.5859 17.1647 17.1738 16H11C10.4477 16 10 15.5523 10 15C10 14.4477 10.4477 14 11 14H17.1738C17.5859 12.8353 18.6941 12 20 12ZM20 14C19.4477 14 19 14.4477 19 15C19 15.5523 19.4477 16 20 16C20.5523 16 21 15.5523 21 15C21 14.4477 20.5523 14 20 14Z" fill="black" fill-opacity="0.3"/>
</svg>

<svg xmlns="http://www.w3.org/2000/svg" fill="none" viewBox="0 0 36 36"><path fill="#000" fill-opacity=".3" d="M16 18c1.306 0 2.414.835 2.826 2H25a1 1 0 1 1 0 2h-6.174a2.998 2.998 0 0 1-5.652 0H11a1 1 0 1 1 0-2h2.174c.412-1.165 1.52-2 2.826-2m0 2a1 1 0 1 0 0 2 1 1 0 0 0 0-2m4-8c1.306 0 2.414.835 2.826 2H25a1 1 0 1 1 0 2h-2.174a2.998 2.998 0 0 1-5.652 0H11a1 1 0 1 1 0-2h6.174c.412-1.165 1.52-2 2.826-2m0 2a1 1 0 1 0 0 2 1 1 0 0 0 0-2"/></svg>
